Newaita-dark/emblems/48/emblem-mounted.svg

<svg height="48" viewBox="0 0 48 48" width="48" xmlns="http://www.w3.org/2000/svg"><path d="m29.882812 9.207031c-.089843-.003906-.175781-.003906-.261718 0-.457032.011719-.90625.085938-1.339844.21875-.027344.007813-.050781.019531-.078125.027344l.039063-.011719-12.558594 3.863282h.316406c-.210938 0-.417969.03125-.621094.09375-2.085937.640624-3.515625 2.554687-3.5625 4.726562h-2.886718c-3.328126 0-6.0625 2.738281-6.0625 6.066406s2.734374 6.0625 6.0625 6.0625h2.886718c.046875 2.171875 1.476563 4.085938 3.5625 4.730469.203125.058594.410156.089844.621094.089844h-.316406l12.574218 3.871093-.023437-.007812c.015625.003906.03125.007812.046875.015625 2.097656.644531 4.203125-.171875 5.445312-1.753906h4.972657c3.328125 0 6.0625-2.734375 6.0625-6.0625s-2.734375-6.0625-6.0625-6.0625h-3.867188v-1.765625h3.867188c3.328125 0 6.0625-2.738282 6.0625-6.066406 0-3.328126-2.734375-6.0625-6.0625-6.0625h-4.9375c-.902344-1.167969-2.296875-1.9375-3.878907-1.972657zm0 0" fill="#424242"/><path d="m29.792969 13.28125c-.019531 0-.035157 0-.054688 0-.085937.003906-.175781.019531-.257812.042969l-12.902344 3.972656c-.410156.125-.695313.507813-.695313.9375v3.972656h-6.953124c-1.097657 0-1.984376.882813-1.984376 1.984375 0 1.097656.886719 1.984375 1.984376 1.984375h6.953124v3.96875c0 .429688.285157.8125.695313.941407l12.902344 3.96875c.632812.195312 1.273437-.28125 1.273437-.941407v-.992187h7.945313c1.097656 0 1.984375-.886719 1.984375-1.984375 0-1.101563-.886719-1.984375-1.984375-1.984375h-7.945313v-9.925782h7.945313c1.097656 0 1.984375-.882812 1.984375-1.984374 0-1.097657-.886719-1.984376-1.984375-1.984376h-7.945313v-.992187c0-.535156-.429687-.972656-.960937-.984375zm0 0" fill="#fafafa"/></svg>

<?xml version="1.0" encoding="UTF-8"?>
<svg xmlns="http://www.w3.org/2000/svg" xmlns:xlink="http://www.w3.org/1999/xlink" width="48px" height="48px" viewBox="0 0 48 48" version="1.1">
<g id="surface1">
<path style=" stroke:none;fill-rule:nonzero;fill:rgb(25.882354%,25.882354%,25.882354%);fill-opacity:1;" d="M 29.882812 9.207031 C 29.792969 9.203125 29.707031 9.203125 29.621094 9.207031 C 29.164062 9.21875 28.714844 9.292969 28.28125 9.425781 C 28.253906 9.433594 28.230469 9.445312 28.203125 9.453125 L 28.242188 9.441406 L 15.683594 13.304688 L 16 13.304688 C 15.789062 13.304688 15.582031 13.335938 15.378906 13.398438 C 13.292969 14.039062 11.863281 15.953125 11.816406 18.125 L 8.929688 18.125 C 5.601562 18.125 2.867188 20.863281 2.867188 24.191406 C 2.867188 27.519531 5.601562 30.253906 8.929688 30.253906 L 11.816406 30.253906 C 11.863281 32.425781 13.292969 34.339844 15.378906 34.984375 C 15.582031 35.042969 15.789062 35.074219 16 35.074219 L 15.683594 35.074219 L 28.257812 38.945312 L 28.234375 38.9375 C 28.25 38.941406 28.265625 38.945312 28.28125 38.953125 C 30.378906 39.597656 32.484375 38.78125 33.726562 37.199219 L 38.699219 37.199219 C 42.027344 37.199219 44.761719 34.464844 44.761719 31.136719 C 44.761719 27.808594 42.027344 25.074219 38.699219 25.074219 L 34.832031 25.074219 L 34.832031 23.308594 L 38.699219 23.308594 C 42.027344 23.308594 44.761719 20.570312 44.761719 17.242188 C 44.761719 13.914062 42.027344 11.179688 38.699219 11.179688 L 33.761719 11.179688 C 32.859375 10.011719 31.464844 9.242188 29.882812 9.207031 Z M 29.882812 9.207031 "/>
<path style=" stroke:none;fill-rule:nonzero;fill:rgb(98.039216%,98.039216%,98.039216%);fill-opacity:1;" d="M 29.792969 13.28125 C 29.773438 13.28125 29.757812 13.28125 29.738281 13.28125 C 29.652344 13.285156 29.5625 13.300781 29.480469 13.324219 L 16.578125 17.296875 C 16.167969 17.421875 15.882812 17.804688 15.882812 18.234375 L 15.882812 22.207031 L 8.929688 22.207031 C 7.832031 22.207031 6.945312 23.089844 6.945312 24.191406 C 6.945312 25.289062 7.832031 26.175781 8.929688 26.175781 L 15.882812 26.175781 L 15.882812 30.144531 C 15.882812 30.574219 16.167969 30.957031 16.578125 31.085938 L 29.480469 35.054688 C 30.113281 35.25 30.753906 34.773438 30.753906 34.113281 L 30.753906 33.121094 L 38.699219 33.121094 C 39.796875 33.121094 40.683594 32.234375 40.683594 31.136719 C 40.683594 30.035156 39.796875 29.152344 38.699219 29.152344 L 30.753906 29.152344 L 30.753906 19.226562 L 38.699219 19.226562 C 39.796875 19.226562 40.683594 18.34375 40.683594 17.242188 C 40.683594 16.144531 39.796875 15.257812 38.699219 15.257812 L 30.753906 15.257812 L 30.753906 14.265625 C 30.753906 13.730469 30.324219 13.292969 29.792969 13.28125 Z M 29.792969 13.28125 "/>
</g>
</svg>
